X: 26
P: No. XXVII.
M: C|
L: 1/8
K: G
V: 1
|:\
c2A2 A2cd | e2A2 e2A2 | c2A2 A2cd | e4 {d}c4 :|
|: G2g2 g2fg | .a(gfe) dcBA | A2a2 Ta2ga | bagf dcBA |\
V: 2 clef=bass middle=d
|:\
g4 g4 | b4 b4 | g4 g4 | b4 g4 |\
a4 a4 | c'4 c'4 | a4 a4 | c'4 c4 :|
|:\
g4 b4 | a4 f4 | a4 c'4 | g4 d4 |\

